X: 2122
T: Ömrün Şu Biten Neş`vesi
C: Süleyman Erguner
O: Turkey
F: http://compmusic.upf.edu/node/140
N: ussak--yuruksemai--yuruksemai--omrun_su--suleyman_erguner
N: makam= ussak
N: form= yuruksemai
N: usul= yuruksemai = 6/8
M: 6/8
L: 1/16
K: C _2/4B   
Q: 1/4=120
%%MIDI tuningsystem comma53
G2G2 AcBA A3G  | ABAB cdcB d4  | d2cB c2BA BcBA  | 
w:  ARANAĞME  |   |   | 
G2cB cdBA A4  | G2G2 AcBA A3G  | ABAB cdcB d4  | 
w:   |  ARANAĞME  |   | 
d2cB c2BA BcBA  | G2cB cdBA A4  | G2G2 A2cB A4  | 
w:   |   |  Öm rün  şu  bi *  ten   | 
A4 A2AB G4  | c2B2 c2d2 cBBA  | A4 ABcB A4  | \
w:  neş ve si  *  tâm   |  ol *  sun_ e ren  |  ler   SAZ  | 
G2G2 A2cB A4  | 
w:  Öm rün  şu  bi *  ten   | 
A4 A2AB G4  | c2B2 c2d2 cBBA  | A4 ABce d4  | \
w:  neş ve si  *  tâm   |  ol *  sun_ e ren  |  ler   SAZ  | 
c2d2 d2ce d4  | 
w:  Son  mec li si  *  câm   | 
f2e2 d2cB c4  | c2B2 A2G2 c2B^A  | B4 BABc d4  | \
w:  üs *  tü ne  *  câm   |  ol *  sun_ e ren  |  ler   SAZ  | 
c2d2 d2Bd c2BA  | 
w:  Son  mec li si  *  câm   | 
A4 c2BA G4  | c3B d2cB BABA  | A4 ABcd e4  | \
w:  üs tü ne  *  câm   |  ol *  sun_ e *  ren  |  ler   SAZ  | 
d2d2 e2g^f e4  | 
w:  Şük ran la  ve *  dâ   | 
e4 e2e^f d4  | g3^f a2gf fe{g}fe  | e4 edcd e4  | \
w:  et ti ği *  miz   |  câm_ *  ı  fe *  nâ  |  ya   SAZ  | 
d2d2 e2g^f e4  | 
w:  Şük ran la  ve *  dâ   | 
e4 e2e^f d4  | g3^f a2gf fe{g}fe  | e4 edce d4  | \
w:  et ti ği *  miz   |  câm_ *  ı  fe *  nâ  |  ya   SAZ  | 
c2d2 d2de d4  | 
w:  Son  pen di miz_ *  ah  | 
f2e2 d2cB c4  | c2B2 A2G2 c2B^A  | B4 BABc d4  | \
w:  lâ *  fa  de *  vâm   |  ol *  sun_ e ren  |  ler   SAZ  | 
c2d2 d2Bd c2BA  | 
w:  Son  pen di miz_ *  ah  | 
A4 c2BA G4  | c3B d2cB BABA  | A4 c2BA A4  | \
w:  lâ fa  de *  vâm   |  ol *  sun_ e *  ren  |  ler   SAZ  | 
G2G2 AcBA A3G  | 
w:  ARANAĞME  | 
ABAB cdcB d4  | d2cB c2BA BcBA  | G2cB cdBA A4  | 
w:   |   |   | 
G2G2 AcBA A3G  | ABAB cdcB d4  | d2cB c2BA BcBA  | 
w:  ARANAĞME  |   |   | 
G2cB cdBA A4  | G2G2 A2cB A4  | A4 A2AB G4  | \
w:   |  Öm rün  şu  bi *  ten   |  neş ve si  *  tâm   | 
c2B2 c2d2 cBBA  | 
w:  ol *  sun_ e ren  | 
A4 ABcB A4  | G2G2 A2cB A4  | A4 A2AB G4  | \
w:  ler   SAZ  |  Öm rün  şu  bi *  ten   |  neş ve si  *  tâm   | 
c2B2 c2d2 cBBA  | 
w:  ol *  sun_ e ren  | 
A4 ABce d4  | c2d2 d2ce d4  | f2e2 d2cB c4  | \
w:  ler   SAZ  |  Son  mec li si  *  câm   |  üs *  tü ne  *  câm   | 
c2B2 A2G2 c2B^A  | 
w:  ol *  sun_ e ren  | 
B4 BABc d4  | c2d2 d2Bd c2BA  | A4 c2BA G4  | \
w:  ler   SAZ  |  Son  mec li si  *  câm   |  üs tü ne  *  câm   | 
c3B d2cB BABA  | 
w:  ol *  sun_ e *  ren  | 
A4 ABcd e4  | d2d2 e2g^f e4  | e4 e2e^f d4  | \
w:  ler   SAZ  |  Şük ran la  ve *  dâ   |  et ti ği *  miz   | 
g3^f a2gf fe{g}fe  | 
w:  câm_ *  ı  fe *  nâ  | 
e4 edcd e4  | d2d2 e2g^f e4  | e4 e2e^f d4  | \
w:  ya   SAZ  |  Şük ran la  ve *  dâ   |  et ti ği *  miz   | 
g3^f a2gf fe{g}fe  | 
w:  câm_ *  ı  fe *  nâ  | 
e4 edce d4  | c2d2 d2de d4  | f2e2 d2cB c4  | \
w:  ya   SAZ  |  Son  pen di miz_ *  ah  |  lâ *  fa  de *  vâm   | 
c2B2 A2G2 c2B^A  | 
w:  ol *  sun_ e ren  | 
B4 BABc d4  | c2d2 d2Bd c2BA  | A4 c2BA G4  | \
w:  ler   SAZ  |  Son  pen di miz_ *  ah  |  lâ fa  de *  vâm   | 
c3B d2cB BABA  | 
w:  ol *  sun_ e *  ren  | 
A4 c2BA A4  | |


